X:1
T:Title
%%score { ( 1 3 ) | ( 2 4 ) }
L:1/8
M:3/4
K:C
V:1 treble nm="Grand Piano"
V:3 treble 
V:2 bass 
V:4 bass 
V:1
 z2 z2[Q:1/4=106] [CE][DF] | [EG]4 [Ec]2 | B2 c2 [_EA]2 | G4- [DG-]2 | [CG]4 [CEG]2 | %5
 [CFA]4 [^CGA]2 | ^F2- [FB]2 [Fc]2 | d6- |[M:2/4] d4 |[M:1/4] G2 |[M:3/4] c2 d2 c2 | B4 B2 | %12
 A2 B2 [A,_EA]2 | [B,E^G]4 [B,E=G]2 | C2- [CGc]2 [Ad]2 | e2- [A,^Fe]2 [=Fd]2 | c2- [Ec-]2 [Dc-]2 | %17
[M:2/4] [Ec]4 |] %18
V:2
 z2 z2 [C,G,]2 | [C,C]4 [C,G,]2 | [C,^F,]4 [C,F,]2 | z2 z2 F,2 | E,4 C,2 | F,4 E,2 | %6
 z2 B,2 [D,G,]2 | [G,F]6- |[M:2/4] [G,F]4 |[M:1/4] [G,B,F]2 |[M:3/4][K:bass] [A,CE]4 [A,E]2 | %11
 [E,^G,D]4 [E,G,D]2 | C2 z2 z2 | E,4 D,2 | C,2 E,2 [F,C]2 | C2 z2 z2 | A,2 z2 z2 |[M:2/4] z4 |] %18
V:3
 x6 | x6 | _E4 z2 | [G,E]4 z2 | x6 | x6 | [CA]2 z2 z2 | z2 B,2 A,2 |[M:2/4] B,4 |[M:1/4] x2 | %10
[M:3/4] x6 | x6 | x6 | x6 | [EG]2 z2 z2 | G2 z2 z2 | F2 z2 z2 |[M:2/4] x4 |] %18
V:4
 x6 | x6 | x6 | C,6- | C,4 z2 | x6 | D,4 z2 | C2 z2 z2 |[M:2/4] x4 |[M:1/4] x2 | %10
[M:3/4][K:bass] x6 | x6 | [F,A,]2- [F,A,D]2 F,2 | x6 | x6 | F,4 [G,B,]2 | C,2- [C,-G,]2 [C,-F,]2 | %17
[M:2/4] [C,G,]4 |] %18

